src/22/actions/preferences-activities.svg

<svg xmlns="http://www.w3.org/2000/svg" viewBox="0 0 22 22"><path d="M5 9c-1.108 0-2 .892-2 2s.892 2 2 2 2-.892 2-2-.892-2-2-2zm6 0c-1.108 0-2 .892-2 2s.892 2 2 2 2-.892 2-2-.892-2-2-2zm6 0c-1.108 0-2 .892-2 2s.892 2 2 2 2-.892 2-2-.892-2-2-2zM5 10c.554 0 1 .446 1 1s-.446 1-1 1-1-.446-1-1 .446-1 1-1zm6 0c.554 0 1 .446 1 1s-.446 1-1 1-1-.446-1-1 .446-1 1-1zm6 0c.554 0 1 .446 1 1s-.446 1-1 1-1-.446-1-1 .446-1 1-1z" fill="currentColor" color="#5d656b"/></svg>

<svg xmlns="http://www.w3.org/2000/svg" viewBox="0 0 22 22">
  <defs id="defs3051">
    <style type="text/css" id="current-color-scheme">
      .ColorScheme-Text {
        color:#5d656b;
      }
      </style>
  </defs>
 <path 
    style="fill:currentColor;fill-opacity:1;stroke:none" 
    d="M 5 9 C 3.8919999 9 3 9.8919999 3 11 C 3 12.108 3.8919999 13 5 13 C 6.1080001 13 7 12.108 7 11 C 7 9.8919999 6.1080001 9 5 9 z M 11 9 C 9.8919999 9 9 9.8919999 9 11 C 9 12.108 9.8919999 13 11 13 C 12.108 13 13 12.108 13 11 C 13 9.8919999 12.108 9 11 9 z M 17 9 C 15.892 9 15 9.8919999 15 11 C 15 12.108 15.892 13 17 13 C 18.108 13 19 12.108 19 11 C 19 9.8919999 18.108 9 17 9 z M 5 10 C 5.5540001 10 6 10.446 6 11 C 6 11.554 5.5540001 12 5 12 C 4.4459999 12 4 11.554 4 11 C 4 10.446 4.4459999 10 5 10 z M 11 10 C 11.554 10 12 10.446 12 11 C 12 11.554 11.554 12 11 12 C 10.446 12 10 11.554 10 11 C 10 10.446 10.446 10 11 10 z M 17 10 C 17.554 10 18 10.446 18 11 C 18 11.554 17.554 12 17 12 C 16.446 12 16 11.554 16 11 C 16 10.446 16.446 10 17 10 z "
    class="ColorScheme-Text"
    />  
</svg>
